src/svg/uf27c-houzz.svg

<!-- Generated by IcoMoon.io -->
<svg version="1.1" xmlns="http://www.w3.org/2000/svg" width="18" height="32" viewBox="0 0 18 32">
<path d="M9.143 21.268l9.143-5.268v10.554l-9.143 5.286v-10.571zM0 16v10.554l9.143-5.286-9.143-5.268zM9.143 0.161v10.554l-9.143 5.286v-10.554zM9.143 10.714l9.143-5.268v10.554z"></path>
</svg>

<svg xmlns="http://www.w3.org/2000/svg" width="18" height="32"><path d="M9.143 21.268L18.286 16v10.554L9.143 31.84V21.269zM0 16v10.554l9.143-5.286L0 16zM9.143.161v10.554L0 16.001V5.447zm0 10.553l9.143-5.268V16z"/></svg>
